!!!COM: Beethoven
!!!OTL: Six Variations on an Original Theme
!!!Variation: Theme a
**function	**harm	**kern	**kern
*	*	*clefF4	*clefG2
*	*	*k[f#c#]	*k[f#c#]
*M2/4	*M2/4	*M2/4	*M2/4
*D:	*D:	*D:	*D:
=1	=1	=1	=1
2T	2I	8DDL 8D	(8f#L 8a
.	.	8DJ	8dJ) 8f#
.	.	8DL	8d'L 8f#'
.	.	8DJ	8d'J 8f#'
=2	=2	=2	=2
2T	2I	8DDL 8D	(8f#L 8a
.	.	8DJ	8dJ) 8f#
.	.	8DL	8d'L 8f#'
.	.	8DJ	8dd'J 8ff#'
=3	=3	=3	=3
2T	2V	8DDL 8D	16cc#LL 16ee
.	.	.	16b 16dd
.	.	8DJ	16a 16cc#
.	.	.	16gJJ 16b
.	.	8DL	8f#'L 8a'
.	.	8DJ	8e'J 8g'
=4	=4	=4	=4
2T	2I	8DDL 8D	8d'L 8f#'
.	.	8DJ	8e'J 8g'
.	.	8DL	4f# 4a
.	.	8DJ	.
=5	=5	=5	=5
2T	2I	8DDL 8D	(8f#L 8a
.	.	8DJ	8dJ) 8f#
.	.	8DL	8d'L 8f#'
.	.	8DJ	8d'J 8f#'
=6	=6	=6	=6
2T	2I	8DDL 8D	(8f#L 8a
.	.	8DJ	8dJ) 8f#
.	.	8DL	8d'L 8f#'
.	.	8DJ	8dd'J 8ff#'
=7	=7	=7	=7
4T	4V	8DDL 8D	16cc#LL 16ee
.	.	.	16b 16dd
.	.	8DJ	16a 16cc#
.	.	.	16gJJ 16b
8T	8I	8DL	8f#'L 8a'
8D	8V7/vi	8FF#J 8F#	8c#'J 8e' 8a#'
=8	=8	=8	=8
4T	4vi	4BBB 4BB	4B 4d 4b
4T	4Vb	4CC# 4C#	4A 4e 4a
=9	=9	=9	=9
2T	2vi	8BBBL 8BB	(8f#L 8dd
.	.	8BBJ	8dJ) 8b
.	.	8BBL	8d'L 8b'
.	.	8BBJ	8d'J 8b'
=10	=10	=10	=10
2T	2V7	8AAAL 8AA	(8gL 8ee
.	.	8AAJ	8eJ) 8cc#
.	.	8AAL	8e'L 8cc#'
.	.	8AAJ	8e'J 8cc#'
=11	=11	=11	=11
2T	2V7	8AAAL 8AA	([8eL 8g 8ee
.	.	8AAJ	8eJ]) 8g 8cc#
.	.	8AAAL 8AA	([8eL 8g 8ee
.	.	8AAJ	8eJ]) 8g 8cc#
=12	=12	=12	=12
2T	2I	8DDL 8D	([8f#L 8a 8ff#
.	.	8DJ	8f#J]) 8a 8dd
.	.	8DDL 8D	([8f#L 8a 8ff#
.	.	8DJ	8f#J]) 8a 8dd
=13	=13	=13	=13
2T	2I	8DDL 8D	(8f#L 8a
.	.	8DJ	8dJ) 8f#
.	.	8DL	8d'L 8f#'
.	.	8DJ	8d'J 8f#'
=14	=14	=14	=14
2T	2I	8DDL 8D	(8f#L 8a
.	.	8DJ	8dJ) 8f#
.	.	8DL	8d'L 8f#'
.	.	8DJ	8dd'J 8ff#'
=15	=15	=15	=15
4T	4V	8DDL 8D	16cc#LL 16ee
.	.	.	16b 16dd
.	.	8DJ	16a 16cc#
.	.	.	16gJJ 16b
8T	8I	8DL	8f#'L 8a'
8D	8V7	8AAAJ 8AA	8e'J 8g' 8cc#'
=16	=16	=16	=16
2T	2I	4DD 4D	4d 4f# 4dd
.	.	4r	4r
=17	=17	=17	=17
2T	2I	(16f#LL	(16aaLL
.	.	16a	16bb
.	.	16d	16aa
.	.	16aJJ	16ggJJ
.	.	16dLL	16ff#LL
.	.	16a	16gg
.	.	16f#	16aa
.	.	16aJJ	16gg#JJ
=18	=18	=18	=18
2T	2I	16f#LL	16aaLL
.	.	16a	16bb
.	.	16d	16aa
.	.	16aJJ	16ggJJ
.	.	16dLL	16ff#LL
.	.	16dd	16fff#
.	.	16cc#	16eee
.	.	16bJJ	16dddJJ
=19	=19	=19	=19
2T	2V	16aLL	16ccc#LL
.	.	16dd	16ccc
.	.	16g	16bb
.	.	16ddJJ	16dddJJ
.	.	16f#LL	16aaLL
.	.	16a	16gg#
.	.	16e	16gg
.	.	16aJJ	16aaJJ
=20	=20	=20	=20
2T	2I	16dLL	16ggLL
.	.	16a	16ff#
.	.	16e	16aa
.	.	16aJJ	16ggJJ
.	.	16eLL	16aaLL
.	.	16a	16gg
.	.	16e#	16aa
.	.	16aJJ	16gg#JJ
=21	=21	=21	=21
2T	2I	16f#LL	16aaLL
.	.	16a	16bb
.	.	16d	16aa
.	.	16aJJ	16ggJJ
.	.	16dLL	16ff#LL
.	.	16a	16gg
.	.	16f#	16aa
.	.	16aJJ	16gg#JJ
=22	=22	=22	=22
2T	2I	16f#LL	16aaLL
.	.	16a	16bb
.	.	16d	16aa
.	.	16aJJ	16ggJJ
.	.	16dLL	16ff#LL
.	.	16dd	16fff#
.	.	16cc#	16eee
.	.	16bJJ	16dddJJ
=23	=23	=23	=23
4T	4V	16aLL	16ccc#LL
.	.	16dd	16ccc
.	.	16g	16bb
.	.	16ddJJ	16dddJJ
8T	8I	16f#LL	16aaLL
.	.	16dd	16gg#
8D	8V7/vi	16f#	16aa
.	.	16eeJJ	16aa#JJ
=24	=24	=24	=24
8T	8vi	16bLL	16bbLL
.	.	16dd	16ccc#
4T	4Vb	16f#	16bb
.	.	16bJJ	16aa#JJ
.	.	16dLL	16bbLL
.	.	16f#	16aa#
8T	8I	16d	16bb
.	.	16c#JJ)	16ccc#JJ)
=25	=25	=25	=25
*	*	*^	*
2T	2vi	16BLL	(8BL	(16dddLL
.	.	16d	.	16eee
.	.	16A#	8A#J	16ddd
.	.	16dJJ	.	16ccc#JJ
.	.	16BLL	4B)	16ccc#LL
.	.	16d	.	16bb
.	.	16e	.	16ccc#
.	.	16dJJ	.	16dddJJ
=26	=26	=26	=26	=26
2T	2V	16c#LL	(8AL	16eeeLL
.	.	16e	.	16fff#
.	.	16c#	8G#J	16eee
.	.	16eJJ	.	16dddJJ
.	.	16c#LL	4A)	16dddLL
.	.	16e	.	16ccc#
.	.	16c#	.	16ddd
.	.	16eJJ	.	16eeeJJ)
=27	=27	=27	=27	=27
2T	2V	16c#LL	(8AL	(16eeeLL
.	.	16e	.	16fff#
.	.	16c#	8G#J	16eee
.	.	16eJJ	.	16dddJJ
.	.	16c#LL	4A)	16dddLL
.	.	16e	.	16ccc#
.	.	16c#	.	16ddd
.	.	16eJJ	.	16eeeJJ
=28	=28	=28	=28	=28
2T	2I	16f#LL	(8dL	16fff#LL
.	.	16a	.	16ggg
.	.	16f#	8c#J	16fff#
.	.	16aJJ	.	16eeeJJ
.	.	16f#LL	4d)	16eeeLL
.	.	16a	.	16ddd
.	.	16f#	.	16eee
.	.	16aJJ	.	16fff#JJ)
*	*	*v	*v	*
=29	=29	=29	=29
2T	2I	(16f#LL	(16aaLL
.	.	16a	16bb
.	.	16d	16aa
.	.	16aJJ	16ggJJ
.	.	16dLL	16ff#LL
.	.	16a	16gg
.	.	16f#	16aa
.	.	16aJJ	16gg#JJ
=30	=30	=30	=30
2T	2I	16f#LL	16aaLL
.	.	16a	16bb
.	.	16d	16aa
.	.	16aJJ	16ggJJ
.	.	16dLL	16ff#LL
.	.	16dd	16fff#
.	.	16cc#	16eee
.	.	16bJJ	16dddJJ
=31	=31	=31	=31
4T	4V	16aLL	16ccc#LL
.	.	16dd	16ccc
.	.	16g	16bb
.	.	16ddJJ	16dddJJ
8T	8I	16f#LL	16aaLL
.	.	16a	16dddJ
*	*	*^	*^
8D	8V7	16e	8A	8ccc#J)	16ggLL
.	.	16aJJ)	.	.	16aaJJ
*	*	*	*	*v	*v
*	*	*v	*v	*
=32	=32	=32	=32
2T	2I	8f# 8d	(16ff#LL 16ddd
.	.	.	16eee
.	.	8r	16ddd
.	.	.	16ccc#JJ
*	*	*clefF4	*
.	.	(16DDLL	8ddd)
.	.	16EE	.
.	.	16DD	8r
.	.	16CC#JJ	.
=33	=33	=33	=33
2T	2I	8DDL)	(16f#LL 16a
.	.	.	16A)
.	.	8DDJ 8D	(16d 16f#
.	.	.	16AJJ)
.	.	8r	8dd' 8ff#'
.	.	8d' 8f#'	8r
=34	=34	=34	=34
2T	2I	8r	(16f#LL 16a
.	.	.	16A)
.	.	8DD 8D	(16d 16f#
.	.	.	16AJJ)
.	.	8r	8dd' 8ff#'
.	.	8d' 8f#'	8r
=35	=35	=35	=35
2T	2ii	16r	16e
.	.	16E	16r
.	.	16r	16d
.	.	16D	16r
.	.	16r	16c#
.	.	16C#	16r
.	.	16r	16B
.	.	16BB	16r
=36	=36	=36	=36
2T	2V	16r	16A
.	.	16AA	16r
.	.	16r	16G
.	.	16GG	16r
.	.	16r	16F#
.	.	16FF#	16r
.	.	16r	16E
.	.	16EE	16r
=37	=37	=37	=37
2T	2I	8r	(16f#LL 16a
.	.	.	16A)
.	.	8DD 8D	16d 16f#
.	.	.	16AJJ
.	.	8r	8dd' 8ff#'
.	.	8d' 8f#'	8r
=38	=38	=38	=38
2T	2I	8r	(16f#LL 16a
.	.	.	16A)
.	.	8DD 8D	16d 16f#
.	.	.	16AJJ
.	.	8r	8dd' 8ff#'
.	.	8d' 8f#'	8r
=39	=39	=39	=39
2T	2ii	16r	16e
.	.	16E	16r
.	.	16r	16d
.	.	16D	16r
.	.	16r	16c#
.	.	16C#	16r
.	.	16r	16B
.	.	16BB	16r
=40	=40	=40	=40
8D	8V	16r	16A
.	.	16AA	16r
8D	8Vb/vi	16r	16A#
.	.	16AA#	16r
4T	4vi	16r	16B
.	.	16BB	16r
.	.	16r	16c#
.	.	16C#	16r
=41	=41	=41	=41
2T	2vi	8r	(16BLL 16d
.	.	.	16F#)
.	.	8BBB 8BB	(16B
.	.	.	16F#JJ)
.	.	8r	8b' 8dd'
.	.	8B' 8d'	8r
=42	=42	=42	=42
2T	2V	8r	(16c#LL 16e
.	.	.	16A)
.	.	8AAA 8AA	(16c#
.	.	.	16AJJ)
.	.	8r	8cc#' 8ee'
.	.	8c#' 8e'	8r
=43	=43	=43	=43
2T	2V	8r	(16c#LL 16e
.	.	.	16AJJ)
.	.	(16C#LL 16E	8r
.	.	16AAJJ)	.
.	.	8r	(16cc#LL 16ee
.	.	.	16aJJ)
.	.	(16c#LL 16e	8r
.	.	16AJJ)	.
=44	=44	=44	=44
2T	2I	8r	(16dLL 16f#
.	.	.	16AJJ)
.	.	(16F#LL 16A	8r
.	.	16DJJ)	.
.	.	8r	(16ddLL 16ff#
.	.	.	16aJJ)
*	*	*clefG2	*
.	.	(16f#LL 16a	8r
.	.	16dJJ)	.
=45	=45	=45	=45
2T	2I	8r	(16f#LL 16a
.	.	.	16A)
*	*	*clefF4	*
.	.	8DD 8D	(16d 16f#
.	.	.	16AJJ)
.	.	8r	8dd' 8ff#'
.	.	8d' 8f#'	8r
=46	=46	=46	=46
2T	2I	8r	(16ff#LL 16aa
.	.	.	16a)
.	.	8D 8d	(16dd 16ff#
.	.	.	16aJJ)
.	.	8r	8ddd' 8fff#'
*	*	*clefG2	*
.	.	8dd' 8ff#'	8r
=47	=47	=47	=47
2P	2ii	16r	16ee 16eee
*	*	*clefF4	*
.	.	16E 16e	16r
.	.	16r	16dd 16ddd
.	.	16D 16d	16r
.	.	16r	16cc# 16ccc#
.	.	16C# 16c#	16r
.	.	16r	16b 16bb
.	.	16BB 16B	16r
=48	=48	=48	=48
4D	4V	16r	16a 16aa
.	.	16AA 16A	16r
.	.	16r	16cc# 16ee 16ccc#
.	.	16AA	16r
4T	4I	8r	8dd 8ff# 8ddd
.	.	8DD 8D	8r
=49	=49	=49	=49
*	*	*^	*
2.T	2.I	8F#L	4.D	(8ff#L 8aa
.	.	8d	.	8ee 8gg
.	.	8AJ	.	8ddJ) 8ff#
.	.	8F#L	4.D	8dd'L 8ff#'
.	.	.	.	q16gg
.	.	.	.	q16ff#
.	.	.	.	q16ee
.	.	8d	.	(8dd 8ff#
.	.	8AJ	.	8eeJ 8gg
=50	=50	=50	=50	=50
2.T	2.I	8F#L	4.D	8ff#L 8aa
.	.	8d	.	8ee 8gg
.	.	8AJ	.	8ddJ) 8ff#
.	.	(8DL	4.D	8dd'L 8ff#'
.	.	8E	.	(8ddd 8fff#
.	.	8F#J	.	8ccc#J 8eee
=51	=51	=51	=51	=51
4.T	4.IV	8GL	4.D	8bbL 8ddd
.	.	8A	.	8aa 8ccc#
.	.	8BJ)	.	8ggJ 8bb
4.T	4.viiom7	8c#L	8DL	8ff#L 8aa
.	.	8c#	8D	8gg 8bb
.	.	8c#J	8DJ	8eeJ) 8gg
=52	=52	=52	=52	=52
2.T	2.I	8dL	8DL	(8ddL 8ff#
.	.	8d	8D	8ee 8gg
.	.	8dJ	8DJ	8ee#J 8gg#
.	.	8dL	8DL	8ggL 8bb
.	.	8d	8D	8ff#) 8aa
.	.	8dJ	8DJ	8ff#'J 8aa'
=53	=53	=53	=53	=53
2.T	2.I	8F#L	4.D	(8ff#L 8aa
.	.	8d	.	8ee 8gg
.	.	8AJ	.	8ddJ) 8ff#
.	.	8F#L	4.D	8dd'L 8ff#'
.	.	.	.	q16gg
.	.	.	.	q16ff#
.	.	.	.	q16ee
.	.	8d	.	(8dd 8ff#
.	.	8AJ	.	8eeJ 8gg
=54	=54	=54	=54	=54
2.T	2.I	8F#L	4.D	8ff#L 8aa
.	.	8d	.	8ee 8gg
.	.	8AJ	.	8ddJ) 8ff#
*	*	*v	*v	*
.	.	(8DL	8dd'L 8ff#'
.	.	8E	(8ddd 8fff#
.	.	8F#J)	8ccc#J 8eee
=55	=55	=55	=55
4.P	4.IV	8GL	8bbL 8ddd
*	*	*clefG2	*
.	.	8f#	8ee 8ccc#
.	.	8gJ	8ddJ) 8bb
4D	4Vb	8eL	(8ddL 8bb
.	.	8c#	8ee 8ccc#
8D	8V/vi	8f#J	8cc#J) 8aa#
=56	=56	=56	=56
*	*	*^	*
4.T	4.vi	8dL	4.B	(4ee 4ccc#
.	.	8b	.	.
.	.	8f#J	.	8dd) 8bb
8T	8Vb	8dL	8B	8r
*	*	*v	*v	*
=57	=57	=57	=57	=57
2.T	2.vi	8dL	4.B	8ff#L 8ddd
.	.	8b	.	8ee 8ccc#
.	.	8f#J	.	8ddJ) 8bb
.	.	8dL	4.B	8dd'L 8bb'
.	.	8b	.	(8dd 8bb
.	.	8f#J	.	8eeJ 8ccc#
=58	=58	=58	=58	=58
2.T	2.vi	8dL	4.B	8ff#L 8ddd
.	.	8b	.	8ee 8ccc#
.	.	8f#J	.	8ddJ) 8bb
.	.	8dL	4.B	8dd'L 8bb'
.	.	.	.	q16ddd
.	.	.	.	q16ccc#
.	.	.	.	q16bb
.	.	8b	.	(8ee 8ccc#
.	.	8f#J	.	8ff#J 8ddd
=59	=59	=59	=59	=59
2.T	2.V7	8c#L	4.A	8ggL 8eee
.	.	8g	.	8ff# 8ddd
.	.	8eJ	.	8eeJ) 8ccc#
.	.	8c#L	4.A	8ee'L 8ccc#'
.	.	.	.	q16ddd
.	.	.	.	q16ccc#
.	.	.	.	q16bb
.	.	8g	.	(8ee 8ccc#
.	.	8eJ	.	8ff#J 8ddd
=60	=60	=60	=60	=60
2.T	2.V7	8c#L	4.A	8ggL 8eee
.	.	8g	.	8ff# 8ddd
.	.	8eJ	.	8eeJ) 8ccc#
.	.	8c#L	8A	8ee'L 8ccc#'
*	*	*v	*v	*
*	*	*clefF4	*
.	.	(8A	(8dd 8ff#
.	.	8GJ)	8eeJ 8gg
=61	=61	=61	=61
*	*	*^	*
2.T	2.I	8F#L	4.D	8ff#L 8aa
.	.	8d	.	8ee 8gg
.	.	8AJ	.	8ddJ) 8ff#
.	.	8F#L	4.D	8dd'L 8ff#'
.	.	8d	.	(8ff# 8ddd
.	.	8AJ	.	8ggJ 8eee
=62	=62	=62	=62	=62
2.T	2.I	8F#L	4.D	8aaL 8fff#
.	.	8d	.	8gg 8eee
.	.	8AJ	.	8ff#J) 8ddd
*	*	*v	*v	*
.	.	(8DL	8ff#'L 8ddd'
.	.	8E	(8ddd 8fff#
.	.	8F#J)	8ccc#J 8eee
=63	=63	=63	=63
*	*	*^	*
4.P	4.ii7b	8GL	4.G	8bbL 8ddd
.	.	8B	.	8aa 8ccc#
.	.	8eJ	.	8ggJ 8bb
4.D	4.V7	8AL	4.A	8ff#L 8aa
.	.	8g	.	8gg 8bb
.	.	8eJ	.	8eeJ 8ccc#
=64	=64	=64	=64	=64
2.T	2.I	(8DL	4D	4gg 4eee
.	.	8c#	.	.
.	.	8dJ)	8D	8ff#) 8ddd
.	.	4d	4D	4ff# 4ddd
.	.	8r	8r	8r
*	*	*v	*v	*
=65	=65	=65	=65
=65	=65	=65	=65
2T	2I	(8CC#L	(8eL 8a
.	.	8DDJ)	8dJ) 8f#
.	.	(8CC#L	(8eL 8a
.	.	8DDJ)	8dJ) 8f#
=66	=66	=66	=66
2T	2I	(16CC#LL	(16eLL 16a
.	.	16DD)	16d) 16f#
.	.	(16CC#	(16e 16a
.	.	16DDJJ)	16dJJ) 16f#
.	.	(16CC#LL	(16eLL 16a
.	.	16DDJJ)	16dJJ) 16f#
.	.	8r	24fff#LL
.	.	.	24eee
.	.	.	24dddJJ
=67	=67	=67	=67
*	*	*clefG2	*
2T	2V7	8AL 8e 8g	24ccc#LL
.	.	.	24bb
.	.	.	24aaJ
.	.	8AJ 8e 8g	24ggL
.	.	.	24ff#
.	.	.	24eeJJ
.	.	8AL 8e 8g	24ddLL
.	.	.	24cc#
.	.	.	24bJ
.	.	8AJ 8e 8g	24aL
.	.	.	24b
.	.	.	24cc#JJ
=68	=68	=68	=68
8T	8I	8d'L 8f#'	8dd'L
8T	8V7	8A'J 8e' 8g'	8cc#'J 8ee'
4T	4I	8d' 8f#'	8dd' 8ff#'
.	.	8r	8r
=69	=69	=69	=69
*	*	*clefF4	*
2T	2I	(8CC#L	(8eL 8a
.	.	8DDJ)	8dJ) 8f#
.	.	(8CC#L	(8eL 8a
.	.	8DDJ)	8dJ) 8f#
=70	=70	=70	=70
2T	2I	(16CC#LL	(16eLL 16a
.	.	16DD)	16d) 16f#
.	.	(16CC#	(16e 16a
.	.	16DDJJ)	16dJJ) 16f#
.	.	(16CC#LL	(16eLL 16a
.	.	16DDJJ)	16dJJ) 16f#
.	.	8r	24gggLL
.	.	.	24fff#
.	.	.	24eeeJJ
=71	=71	=71	=71
*	*	*clefG2	*
4.T	4.I	8dL 8f#	24dddLL
.	.	.	24ccc#
.	.	.	24bbJ
.	.	8dJ 8f#	32aaLL
.	.	.	32gg
.	.	.	32ff#
.	.	.	32eeJJJ
.	.	8dL 8f#	24ddLL
.	.	.	24cc#
.	.	.	24bJ
*	*	*clefF4	*
8D	8V7/vi	8F#J 8c# 8e	24a#L
.	.	.	24ff#
.	.	.	24a#JJ
=72	=72	=72	=72
2T	2vi	8B'L 8d'	8b'L
.	.	8B'J 8d'	8b'J
.	.	8B' 8d'	8b'
.	.	8r	8r
=73	=73	=73	=73
2T	2vi	(8AAA#L	(8F#L 8d
.	.	8BBBJ)	8BJ)
.	.	(8AAA#L	(8F#L 8d
.	.	8BBBJ)	8BJ)
=74	=74	=74	=74
2T	2V	(8GGG#L	(8BL 8e
.	.	8AAAJ)	8AJ) 8c#
.	.	(8GGG#L	(8BL 8e
.	.	8AAAJ)	8AJ) 8c#
=75	=75	=75	=75
2T	2V	(16GGG#LL	(16BLL 16e
.	.	16AAA)	16A) 16c#
.	.	(16GGG#	(16B 16e
.	.	16AAAJJ)	16AJJ) 16c#
.	.	(16GGG#LL	(16BLL 16e
.	.	16AAA)	16A) 16c#
.	.	(16GGG#	(16B 16e
.	.	16AAAJJ)	16AJJ) 16c#
=76	=76	=76	=76
2T	2I	(16CC#LL	(16ALL 16f#
.	.	16DD)	16d)
.	.	(16CC#	(16A 16f#
.	.	16DDJJ)	16dJJ)
.	.	(16CC#LL	(16ALL 16f#
.	.	16DD)	16d)
.	.	(16CC#	(16A 16f#
.	.	16DDJJ)	16dJJ)
=77	=77	=77	=77
2T	2I	(8CC#L	(8eL 8a
.	.	8DDJ)	8dJ) 8f#
.	.	(8CC#L	(8eL 8a
.	.	8DDJ)	8dJ) 8f#
=78	=78	=78	=78
2T	2I	(16CC#LL	(16eLL 16a
.	.	16DD)	16d) 16f#
.	.	(16CC#	(16e 16a
.	.	16DDJJ)	16dJJ) 16f#
.	.	(16CC#LL	(16eLL 16a
.	.	16DDJJ)	16dJJ) 16f#
*	*	*clefG2	*
.	.	8dd 8ff#	24fff#LL
.	.	.	24eee
.	.	.	24dddJJ
=79	=79	=79	=79
2D	2V7	8ee 8gg	24ccc#LL
.	.	.	24bb
.	.	.	24aaJ
.	.	8A 8e 8g	24ggL
.	.	.	24ff#
.	.	.	24eeJJ
.	.	8AL 8e 8g	24ddLL
.	.	.	24cc#
.	.	.	24bJ
.	.	8AJ 8e 8g	24aL
.	.	.	24b
.	.	.	24cc#JJ
=80	=80	=80	=80
2T	2I	8d'L 8f#'	8dd'L
.	.	8d'J 8f#'	8dd'J
.	.	8d' 8f#'	8dd'
.	.	8r	8r
=81	=81	=81	=81
*	*	*^	*^
2T	2I	2A	(16ALL	(16dLL	2d
.	.	.	16F#	16f#	.
.	.	.	16D	16a	.
.	.	.	16F#JJ	16f#JJ	.
.	.	.	16DLL	16aLL	.
.	.	.	16F#	16f#	.
.	.	.	16D	16a	.
.	.	.	16AAJJ)	16ddJJ)	.
=82	=82	=82	=82	=82	=82
2T	2I	2A	(16ALL	(16dLL	2d
.	.	.	16F#	16f#	.
.	.	.	16D	16a	.
.	.	.	16F#JJ	16f#JJ	.
.	.	.	16DLL	16aLL	.
.	.	.	16F#	16f#	.
.	.	.	16D	16a	.
.	.	.	16AAJJ)	16ddJJ)	.
=83	=83	=83	=83	=83	=83
2T	2V7	2A	(16ALL	(16eLL	8r
.	.	.	16G	16g	.
.	.	.	16E	16a	8c#
.	.	.	16GJJ	16gJJ	.
.	.	.	16ELL	16aLL	8r
.	.	.	16G	16g	.
.	.	.	16E	16a	8c#
.	.	.	16AAJJ)	16cc#JJ)	.
=84	=84	=84	=84	=84	=84
2T	2I	2A	(16ALL	(16dLL	2d
.	.	.	16F#	16f#	.
.	.	.	16D	16a	.
.	.	.	16F#JJ	16f#JJ	.
.	.	.	16DLL	16aLL	.
.	.	.	16F#	16f#	.
.	.	.	16D	16a	.
.	.	.	16AAJJ)	16ddJJ)	.
=85	=85	=85	=85	=85	=85
2T	2I	2A	(16ALL	(16dLL	2d
.	.	.	16F#	16f#	.
.	.	.	16D	16a	.
.	.	.	16F#JJ	16f#JJ	.
.	.	.	16DLL	16aLL	.
.	.	.	16F#	16f#	.
.	.	.	16D	16a	.
.	.	.	16AAJJ)	16ddJJ)	.
=86	=86	=86	=86	=86	=86
2T	2I	2A	(16ALL	(16dLL	2d
.	.	.	16F#	16f#	.
.	.	.	16D	16a	.
.	.	.	16F#JJ	16f#JJ	.
.	.	.	16DLL	16aLL	.
.	.	.	16F#	16f#	.
.	.	.	16D	16a	.
.	.	.	16AAJJ)	16ddJJ)	.
=87	=87	=87	=87	=87	=87
2D	2V7m9	2A	(16ALL	(16eLL	8r
.	.	.	16G	16g	.
.	.	.	16E	16a	8c#
.	.	.	16GJJ	16gJJ	.
.	.	.	16ELL	16aLL	8r
.	.	.	16G	16g	.
.	.	.	16E	16b-	8c#
.	.	.	16AAJJ)	16gJJ)	.
=88	=88	=88	=88	=88	=88
4T	4Cto7	4G#	(16G#LL	(16dLL	4d
.	.	.	16F	16g#	.
.	.	.	16D	16b	.
.	.	.	16FJJ	16g#JJ	.
4T	4I	4B	16BLL	16dLL	4d
.	.	.	16F	16g#	.
.	.	.	16D	16b	.
.	.	.	16FJJ)	16g#JJ)	.
*	*	*	*	*v	*v
*	*	*v	*v	*
=89	=89	=89	=89
*	*	*^	*^
2D	2viioD7b/V	2B	(16BLL	(16dLL	2d
.	.	.	16F	16g#	.
.	.	.	16D	16b	.
.	.	.	16FJJ	16g#JJ	.
.	.	.	16DLL	16bLL	.
.	.	.	16F	16g#	.
.	.	.	16D	16b	.
.	.	.	16AAJJ)	16ddJJ)	.
=90	=90	=90	=90	=90	=90
2D	2V7	4.c#	(16c#LL	(16eLL	2e
.	.	.	16G	16g	.
.	.	.	16E	16cc#	.
.	.	.	16GJJ	16gJJ	.
.	.	.	16ELL	16cc#LL	.
.	.	.	16G	16g	.
.	.	8r	16E	16cc#	.
.	.	.	16AAJJ)	16eeJJ)	.
=91	=91	=91	=91	=91	=91
2D	2V7	4.c#	(16c#LL	(16eLL	2e
.	.	.	16G	16g	.
.	.	.	16E	16cc#	.
.	.	.	16GJJ	16gJJ	.
.	.	.	16ELL	16cc#LL	.
.	.	.	16G	16g	.
.	.	8r	16E	16cc#	.
.	.	.	16AAJJ)	16eeJJ)	.
=92	=92	=92	=92	=92	=92
2T	2I	4.d	(16dLL	(16f#LL	2f#
.	.	.	16A	16a	.
.	.	.	16F#	16dd	.
.	.	.	16AJJ	16aJJ	.
.	.	.	16F#LL	16ddLL	.
.	.	.	16A	16a	.
.	.	8r	16F#	16dd	.
.	.	.	16AAJJ)	16ff#JJ)	.
=93	=93	=93	=93	=93	=93
2T	2I	2A	(16ALL	(16ddLL	2dd
.	.	.	16F#	16ff#	.
.	.	.	16D	16aa	.
.	.	.	16F#JJ	16ff#JJ	.
.	.	.	16DLL	16aaLL	.
.	.	.	16F#	16ff#	.
.	.	.	16D	16aa	.
.	.	.	16AAJJ)	16dddJJ)	.
=94	=94	=94	=94	=94	=94
2T	2I	2A	(16ALL	(16ddLL	2dd
.	.	.	16F#	16ff#	.
.	.	.	16D	16aa	.
.	.	.	16F#JJ	16ff#JJ	.
.	.	.	16DLL	16aaLL	.
.	.	.	16F#	16ff#	.
.	.	.	16D	16aa	.
.	.	.	16AAJJ)	16dddJJ)	.
=95	=95	=95	=95	=95	=95
2D	2V7	2A	(16ALL	(16eeLL	8r
.	.	.	16G	16gg	.
.	.	.	16E	16aa	8cc#
.	.	.	16GJJ	16ggJJ	.
.	.	.	16ELL	16aaLL	8r
.	.	.	16G	16gg	.
.	.	.	16E	16aa	8cc#
.	.	.	16AAJJ)	16ccc#JJ)	.
=96	=96	=96	=96	=96	=96
2T	2I	2r	(16F#LL	(16ddLL	2dd
.	.	.	16D	16ff#	.
.	.	.	16AA	16aa	.
.	.	.	16DJJ	16ff#JJ	.
.	.	.	16FF#LL	16aaLL	.
.	.	.	16AA	16ff#	.
.	.	.	16FF#	16aa	.
.	.	.	16DDJJ)	16dddJJ)	.
*	*	*	*	*v	*v
*	*	*v	*v	*
=97	=97	=97	=97
2.T	2.I	8DL	(4ff# 4aa
.	.	8F#J 8A 8d	.
.	.	8DL	8dd) 8ff#
.	.	8F#J 8A 8d	8r
.	.	.	q16gg
.	.	.	q16ff#
.	.	.	q16ee
.	.	8DL	8dd 8ff#
.	.	8F#J 8A 8d	16r
.	.	.	16ee 16gg
=98	=98	=98	=98
2.T	2.I	8DL	(4ff# 4aa
.	.	8F#J 8A 8d	.
.	.	8DL	8dd) 8ff#
.	.	8F#J 8A 8d	8r
.	.	8DL	4ddd 4fff#
.	.	8F#J 8A 8d	.
=99	=99	=99	=99
2.T	2.IV	8DL	8ccc#'L 8eee'
.	.	8F#J 8A 8d	8bb'J 8ddd'
.	.	8DL	8aa'L 8ccc#'
.	.	8F#J 8A 8d	8gg'J 8bb'
.	.	8DL	8ff#'L 8aa'
.	.	8F#J 8A 8d	8ee'J 8gg'
=100	=100	=100	=100
2.T	2.I	8DL	8dd'L 8ff#'
.	.	8F#J 8A 8d	8ee'J 8gg'
.	.	8DL	8ff#'L 8aa'
.	.	8F#J 8A 8d	8ee'J 8gg'
.	.	8DL	8dd'L 8ff#'
.	.	8F#J 8A 8d	8ee'J 8gg'
=101	=101	=101	=101
2.T	2.I	8DL	(4ff# 4aa
.	.	8F#J 8A 8d	.
.	.	8DL	8dd) 8ff#
.	.	8F#J 8A 8d	8r
.	.	.	q16gg
.	.	.	q16ff#
.	.	.	q16ee
.	.	8DL	8dd 8ff#
.	.	8F#J 8A 8d	16r
.	.	.	16ee 16gg
=102	=102	=102	=102
2.T	2.I	8DL	4ff# 4aa
.	.	8F#J 8A 8d	.
.	.	8DL	8dd 8ff#
.	.	8F#J 8A 8d	8r
.	.	8DL	4ff# 4fff#
.	.	8dJ	.
=103	=103	=103	=103
2D	2Vb	8C#'L 8c#'	8ee'L 8eee'
.	.	8D'J 8d'	8dd'J 8ddd'
.	.	8E'L 8e'	8cc#'L 8ccc#'
.	.	8E#'J 8e#'	8b'J 8bb'
8D	8Ib	8F#'L 8f#'	8dd'L 8ff#'
8D	8V7/vi	8FF#'J 8F#'	8cc#'J 8ee' 8aa#'
=104	=104	=104	=104
8T	8vi	8BB'L 8B'	8b'L 8dd' 8bb'
8T	8V7/vi	8FF#'J 8F#'	8a#'J 8cc#' 8aa#'
4T	4vi	4BB 4B	4b 4dd 4bb
=105	=105	=105	=105
2T	2vi	8BBL	(4dd 4ff# 4ddd
.	.	8DJ 8F# 8B	.
.	.	8BBL	8b) 8dd 8bb
.	.	8DJ 8F# 8B	8r
4T	4V7	8AAL	8cc# 8ee 8ccc#
.	.	8C#J 8E 8G	16r
.	.	.	16dd 16ff# 16ddd
=106	=106	=106	=106
2.T	2.V7	8AAL	(4ee 4gg 4eee
.	.	8C#J 8E 8G	.
.	.	8AAL	8cc#) 8ee 8ccc#
.	.	8C#J 8E 8G	8r
.	.	8AAL	8cc# 8ee 8ccc#
.	.	8C#J 8E 8G	16r
.	.	.	16dd 16ff# 16ddd
=107	=107	=107	=107
2.T	2.V7	8AAL	8ee'L 8gg' 8eee'
.	.	8C#J 8E 8G	8dd'J 8ff#' 8ddd'
.	.	8AAL	8ee'L 8gg' 8eee'
.	.	8C#J 8E 8G	8cc#'J 8ee' 8ccc#'
.	.	8AAL	8dd'L 8ff#' 8ddd'
.	.	8C#J 8E 8G	8ee'J 8gg' 8eee'
=108	=108	=108	=108
2.T	2.I	8DL	8ff#'L 8aa' 8fff#'
.	.	8F#J 8A 8d	8ee'J 8gg' 8eee'
.	.	8DL	8dd'L 8ff#' 8ddd'
.	.	8F#J 8A 8d	8ee'J 8gg' 8eee'
.	.	8DL	8ff#'L 8aa' 8fff#'
.	.	8F#J 8A 8d	8ff#'J 8aa' 8fff#'
=109	=109	=109	=109
2.T	2.I	8DL	(4ff# 4aa 4fff#
.	.	8F#J 8A 8d	.
.	.	8DL	8dd) 8ff# 8ddd
.	.	8F#J 8A 8d	8r
.	.	8DL	8.ddL 8.ff#
.	.	8F#J 8A 8d	.
.	.	.	16eeJk 16gg
=110	=110	=110	=110
2.T	2.I	8DL	(4ff# 4aa
.	.	8F#J 8A 8d	.
.	.	8DL	8dd) 8ff#
.	.	8F#J 8A 8d	8r
.	.	8DL	4ff# 4fff#
.	.	8dJ	.
=111	=111	=111	=111
2D	2Vb	8E'L 8e'	8ee'L 8eee'
.	.	8F#'J 8f#'	8dd'J 8ddd'
.	.	8G'L 8g'	8cc#'L 8ccc#'
.	.	8G#'J 8g#'	8b'J 8bb'
4D	4V	8A'L 8a'	8a'L 8aa'
.	.	8AA'J 8A'	8cc#'J 8ee' 8ccc#'
=112	=112	=112	=112
8T	8I	8D'L 8d'	8dd'L 8ff#' 8ddd'
8T	8V	8AA'J 8A'	8cc#'J 8ee' 8ccc#'
4T	4I	4D' 4d'	4dd 4ff# 4ddd
=113	=113	=113	=113
2T	2i	8FF'L 8F'	8d'L 8dd'
.	.	8DD'J 8D'	8e'J 8ee'
.	.	4r	8f'L 8ff'
.	.	.	8d'J 8dd'
4T	4ii/-III[iv]	8GG'L 8G'	4r
.	.	8AA'J 8A'	.
=114	=114	=114	=114
2T	2ii/-III[iv]	8BB-'L 8B-'	8g'L 8gg'
.	.	8GG'J 8G'	8a'J 8aa'
.	.	4r	8b-'L 8bb-'
.	.	.	8g'J 8gg'
4T	4V/-III	8CC'L 8C'	4r
.	.	8DD'J 8D'	.
=115	=115	=115	=115
2T	2V/-III	8EE'L 8E'	8c'L 8cc'
.	.	8CC'J 8C'	8d'J 8dd'
.	.	4r	8e'L 8ee'
.	.	.	8c'J 8cc'
4T	4I/-III	8FF'L 8F'	4r
.	.	8GG'J 8G'	.
=116	=116	=116	=116
2.T	2.I/-III	8AA'L 8A'	8f'L 8ff'
.	.	8FF'J 8F'	8g'J 8gg'
.	.	4r	8a'L 8aa'
.	.	.	8f'J 8ff'
.	.	4r	8a'L
.	.	.	8cc'J
=117	=117	=117	=117
2.T	2.V7/-III	4C 4G 4B-	8b-'L
.	.	.	8a'J
.	.	4C 4G 4B-	8b-'L
.	.	.	8g'J
.	.	4C 4G 4B-	8cc'L
.	.	.	8b-'J
=118	=118	=118	=118
2.T	2.Ic/-III	4C 4F 4A	8a'L
.	.	.	8cc'J
.	.	4C 4F 4A	8ff'L
.	.	.	8cc'J
.	.	4C 4F 4A	8ff'L
.	.	.	8aa'J
=119	=119	=119	=119
2.T	2.V7/-III	4C 4G 4B-	8ee'L
.	.	.	8gg'J
.	.	4C 4G 4B-	8ccc'L
.	.	.	8bb-'J
.	.	4C 4G 4B-	8aa'L
.	.	.	8gg'J
=120	=120	=120	=120
2.T	2.Ic/-III	4C 4F 4A	8ff'L
.	.	.	8aa'J
.	.	4C 4F 4A	8ff'L
.	.	.	8cc'J
.	.	4C 4F 4A	8a'L
.	.	.	8cc'J
=121	=121	=121	=121
2.T	2.V7/-III	4C 4G 4B-	8b-'L
.	.	.	8a'J
.	.	4C 4G 4B-	8b-'L
.	.	.	8g'J
.	.	4C 4G 4B-	8cc'L
.	.	.	8b-'J
=122	=122	=122	=122
2.T	2.Ic/-III	4C 4F 4A	8a'L
.	.	.	8cc'J
.	.	4C 4F 4A	8ff'L
.	.	.	8cc'J
.	.	4C 4F 4A	8ff'L
.	.	.	8aa'J
=123	=123	=123	=123
2.T	2.V7/-III	4C 4G 4B-	8ee'L
.	.	.	8gg'J
.	.	4C 4G 4B-	8ccc'L
.	.	.	8bb-'J
.	.	4C 4G 4B-	8aa'L
.	.	.	8gg'J
=124	=124	=124	=124
2.T	2.i/-III	16FLL	4ff
.	.	16A-	.
.	.	16F	.
.	.	16A-JJ	.
.	.	16FLL	4r
.	.	16A-	.
.	.	16F	.
.	.	16A-JJ	.
.	.	16FLL	8f
.	.	16A-	.
.	.	16F	16r
.	.	16A-JJ	16g
=125	=125	=125	=125
2.T	2.-VI/-III	16D-LL	(4a-
.	.	16F	.
.	.	16D-	.
.	.	16FJJ	.
.	.	16D-LL	4f)
.	.	16F	.
.	.	16D-	.
.	.	16FJJ	.
.	.	16D-LL	8b-
.	.	16F	.
.	.	16D-	16r
.	.	16FJJ	16cc
=126	=126	=126	=126
2.T	2.iv/-III	16BB-LL	(4dd-
.	.	16D-	.
.	.	16BB-	.
.	.	16D-JJ	.
.	.	16BB-LL	4b-)
.	.	16D-	.
.	.	16BB-	.
.	.	16D-JJ	.
.	.	16BB-LL	8b-
.	.	16D-	.
.	.	16BB-	16r
.	.	16D-JJ	16cc-
=127	=127	=127	=127
2T	2N/-III	16GG-LL	(4dd-
.	.	16BB-	.
.	.	16GG-	.
.	.	16BB-JJ	.
.	.	16GG-LL	4b-)
.	.	16BB-	.
.	.	16GG-	.
.	.	16BB-JJ	.
4T	4V/vi	16FF#LL	8b
.	.	16AA#	.
.	.	16FF#	16r
.	.	16AA#JJ	16cc#
=128	=128	=128	=128
2.T	2.vi	16BBLL	(4dd
.	.	16D	.
.	.	16BB	.
.	.	16DJJ	.
.	.	16BBLL	4b)
.	.	16D	.
.	.	16BB	.
.	.	16DJJ	.
.	.	16BBLL	8cc#
.	.	16D	.
.	.	16BB	16r
.	.	16DJJ	16dd
=129	=129	=129	=129
2.T	2.V	16AALL	(4ee
.	.	16C#	.
.	.	16AA	.
.	.	16C#JJ	.
.	.	16AALL	4cc#)
.	.	16C#	.
.	.	16AA	.
.	.	16C#JJ	.
.	.	16AALL	8ee
.	.	16C#	.
.	.	16AA	16r
.	.	16C#JJ	16ff#
=130	=130	=130	=130
2.T	2.V7	16AALL	(4gg
.	.	16E	.
.	.	16AA	.
.	.	16EJJ	.
.	.	16AALL	4ee)
.	.	16E	.
.	.	16AA	.
.	.	16EJJ	.
.	.	16AALL	8ee'L 8ccc#'
.	.	16E	.
.	.	16AA	8ff#'J 8ddd'
.	.	16EJJ	.
=131	=131	=131	=131
2.T	2.V7	16AALL	8gg'L 8eee'
.	.	16A	.
.	.	16AA	8ff#'J 8ddd'
.	.	16AJJ	.
.	.	16AALL	8ee'L 8ccc#'
.	.	16A	.
.	.	16AA	8ff#'J 8ddd'
.	.	16AJJ	.
.	.	16AALL	8gg'L 8eee'
.	.	16A	.
.	.	16AA	8ff#'J 8ddd'
.	.	16AJJ	.
=132	=132	=132	=132
2.T	2.V7	16AALL	8ee'L 8ccc#'
.	.	16A	.
.	.	16AA	8ff#'J 8ddd'
.	.	16AJJ	.
.	.	16AALL	8gg'L 8eee'
.	.	16A	.
.	.	16AA	8ff#'J 8ddd'
.	.	16AJJ	.
.	.	16AALL	8ee'L 8ccc#'
.	.	16A	.
.	.	16AA	8ff#'J 8ddd'
.	.	16AJJ	.
=133	=133	=133	=133
4.T	4.V7	16AALL	8ee'L 8ccc#'
.	.	16A	.
.	.	16AA	8ff#'J 8ddd'
.	.	16AJJ	.
.	.	16AALL	8gg'L 8eee'
.	.	16A	.
=134	=134	=134	=134
2.T	2.I	16DLL	(4ff# 4aa 4fff#
.	.	16F#	.
.	.	16A	.
.	.	16dJJ	.
.	.	16DLL	8dd) 8ff# 8ddd
.	.	16F#	.
.	.	16A	8r
.	.	16dJJ	.
.	.	.	q16gg
.	.	.	q16ff#
.	.	.	q16ee
.	.	16DLL	8dd 8ff#
.	.	16F#	.
.	.	16A	16r
.	.	16dJJ	16ee 16gg
=135	=135	=135	=135
2.T	2.I	16DLL	(4ff# 4aa
.	.	16F#	.
.	.	16A	.
.	.	16dJJ	.
.	.	16DLL	8dd) 8ff#
.	.	16F#	.
.	.	16A	8r
.	.	16dJJ	.
.	.	16DLL	4ddd 4fff#
.	.	16F#	.
.	.	16A	.
.	.	16dJJ	.
=136	=136	=136	=136
2.T	2.IV	16DLL	8ccc#'L 8eee'
.	.	16G	.
.	.	16B	8bb'J 8ddd'
.	.	16dJJ	.
.	.	16DLL	8aa'L 8ccc#'
.	.	16G	.
.	.	16B	8gg'J 8bb'
.	.	16dJJ	.
.	.	16DLL	8ff#'L 8aa'
.	.	16G	.
.	.	16B	8ee'J 8gg'
.	.	16dJJ	.
=137	=137	=137	=137
2.T	2.I	16DLL	8dd'L 8ff#'
.	.	16F#	.
.	.	16A	8ee'J 8gg'
.	.	16dJJ	.
.	.	16DLL	8ff#'L 8aa'
.	.	16F#	.
.	.	16A	8ddJ 8ff# 8ddd
.	.	16dJJ	.
.	.	16DLL	8ddL 8ff# 8ddd
.	.	16F#	.
.	.	16A	8eeJ 8gg 8eee
.	.	16dJJ	.
=138	=138	=138	=138
2.T	2.I	16DLL	8ff#L 8aa 8fff#
.	.	16F#	.
.	.	16A	8ddJ 8ff# 8ddd
.	.	16dJJ	.
.	.	16DLL	8ddL 8ff# 8ddd
.	.	16F#	.
.	.	16A	8ddJ 8ff# 8ddd
.	.	16dJJ	.
.	.	.	q16gg
.	.	.	q16ff#
.	.	.	q16ee
.	.	16DLL	8dd 8ff#
.	.	16F#	.
.	.	16A	16r
.	.	16dJJ	16ee 16gg
=139	=139	=139	=139
2.T	2.I	16DLL	8ff#L 8aa
.	.	16F#	.
.	.	16A	8ddJ 8ff#
.	.	16dJJ	.
.	.	16DLL	8ddL 8ff#
.	.	16F#	.
.	.	16A	8ddJ 8ff#
.	.	16dJJ	.
.	.	16DLL	8dd'L 8ff#' 8ddd'
.	.	16d	.
.	.	16D	8ff#'J 8fff#'
.	.	16dJJ	.
=140	=140	=140	=140
2D	2Vb	16C#LL	8ee'L 8eee'
.	.	16c#	.
.	.	16D	8dd'J 8ddd'
.	.	16dJJ	.
.	.	16ELL	8cc#'L 8ccc#'
.	.	16e	.
.	.	16E#	8b'J 8bb'
.	.	16e#JJ	.
8D	8Ib	16F#LL	8f#'L 8ff#'
.	.	16f#	.
8D	8V7/vi	16FF#	8a#'J 8cc#' 8ee' 8aa#'
.	.	16F#JJ	.
=141	=141	=141	=141
8T	8vi	16BBLL	8b'L 8dd' 8bb'
.	.	16B	.
8T	8V7/vi	16FF#	8a#'J 8cc#' 8aa#'
.	.	16F#JJ	.
4T	4vi	16BBLL	4b 4dd 4bb
.	.	16D	.
.	.	16F#	.
.	.	16BJJ	.
=142	=142	=142	=142
2T	2vi	16BBLL	8dd'L 8ff#' 8ddd'
.	.	16D	.
.	.	16F#	8cc#'J 8ee' 8ccc#'
.	.	16BJJ	.
.	.	16BBLL	8dd'L 8ff#' 8ddd'
.	.	16D	.
.	.	16F#	8b'J 8dd' 8bb'
.	.	16BJJ	.
4T	4V7	16AALL	8cc#'L 8ee' 8ccc#'
.	.	16C#	.
.	.	16E	8dd'J 8ff#' 8ddd'
.	.	16GJJ	.
=143	=143	=143	=143
2.T	2.V7	16AALL	8ee'L 8gg' 8eee'
.	.	16C#	.
.	.	16E	8dd'J 8ff#' 8ddd'
.	.	16GJJ	.
.	.	16AALL	8ee'L 8gg' 8eee'
.	.	16C#	.
.	.	16E	8cc#'J 8ee' 8ccc#'
.	.	16GJJ	.
.	.	16AALL	8dd'L 8ff#' 8ddd'
.	.	16C#	.
.	.	16E	8ee'J 8gg' 8eee'
.	.	16GJJ	.
=144	=144	=144	=144
2.T	2.V7	16AALL	8ee'L 8gg' 8eee'
.	.	16C#	.
.	.	16E	8dd'J 8ff#' 8ddd'
.	.	16GJJ	.
.	.	16AALL	8ee'L 8gg' 8eee'
.	.	16C#	.
.	.	16E	8cc#'J 8ee' 8ccc#'
.	.	16GJJ	.
.	.	16AALL	8dd'L 8ff#' 8ddd'
.	.	16C#	.
.	.	16E	8ee'J 8gg' 8eee'
.	.	16GJJ	.
=145	=145	=145	=145
2.T	2.I	16DDLL	8ff#'L 8aa' 8fff#'
.	.	16FF#	.
.	.	16AA	8ee'J 8gg' 8eee'
.	.	16DJJ	.
.	.	16DDLL	8ff#'L 8aa' 8fff#'
.	.	16FF#	.
.	.	16AA	8dd'J 8ff#' 8ddd'
.	.	16DJJ	.
.	.	16DDLL	8ee'L 8gg' 8eee'
.	.	16FF#	.
.	.	16AA	8ff#'J 8aa' 8fff#'
.	.	16DJJ	.
=146	=146	=146	=146
2.T	2.I	16DDLL	8ff#'L 8aa' 8fff#'
.	.	16FF#	.
.	.	16AA	8dd'J 8ff#' 8ddd'
.	.	16DJJ	.
.	.	16DDLL	8dd'L 8ff#' 8ddd'
.	.	16FF#	.
.	.	16AA	8dd'J 8ff#' 8ddd'
.	.	16DJJ	.
.	.	.	q16gg
.	.	.	q16ff#
.	.	.	q16ee
.	.	16DDLL	8dd'L 8ff#'
.	.	16FF#	.
.	.	16AA	8ee'J 8gg'
.	.	16DJJ	.
=147	=147	=147	=147
2.T	2.I	16DDLL	8ff#'L 8aa'
.	.	16FF#	.
.	.	16AA	8dd'J 8ff#'
.	.	16DJJ	.
.	.	16DDLL	8dd'L 8ff#'
.	.	16FF#	.
.	.	16AA	8dd'J 8ff#'
.	.	16DJJ	.
.	.	16DDLL	8dd'L 8ff#' 8ddd'
.	.	16D	.
.	.	16DD	8ff#'J 8fff#'
.	.	16DJJ	.
=148	=148	=148	=148
4.P	4.ii	16EELL	8ee'L 8eee'
.	.	16E	.
.	.	16FF#	8dd'J 8ddd'
.	.	16F#JJ	.
.	.	16GGLL	8cc#'L 8ccc#'
.	.	16G	.
8P	8viio/V	16GG#	8b'J 8bb'
.	.	16G#JJ	.
4D	4V	16AALL	8a'L 8aa'
.	.	16A	.
.	.	16AA	8cc#'J 8ee' 8ccc#'
.	.	16AJJ	.
=149	=149	=149	=149
2.T	2.I	4DD 4D	4dd 4ff# 4ddd
.	.	4r	4r
.	.	8D'L	8f#'L 8a' 8dd'
.	.	8D'J	8a'J 8ff#'
=150	=150	=150	=150
4.T	4.ii	8E'L	8g'L 8ee'
.	.	8F#'J	8f#'J 8dd'
.	.	8G'L	8e'L 8cc#'
8T	8viio/V	8G#'J	8d'J 8b'
4T	4V7	8A'L	8c#'L 8a'
.	.	8AA'J	8e'J 8g' 8cc#'
=151	=151	=151	=151
2.T	2.I	4D	4d 4f# 4dd
.	.	4r	4r
.	.	4F#' 4f#'	4ff#' 4fff#'
=152	=152	=152	=152
2.T	2.I	2.r	4r
.	.	.	4r
.	.	.	4f#
=153	=153	=153	=153
2.T	2.I	2.r	4r
.	.	.	4r
.	.	.	4f#
=154	=154	=154	=154
2T	2I	8DDL 8D	(8f#L 8a
.	.	8DJ	8dJ) 8f#
.	.	8DL	8d'L 8f#'
.	.	8DJ	8d'J 8f#'
=155	=155	=155	=155
2T	2I	8DDL 8D	(8f#L 8a
.	.	8DJ	8dJ) 8f#
.	.	8DL	8d'L 8f#'
.	.	8DJ	8dd'J 8ff#'
=156	=156	=156	=156
2T	2V7	8DDL 8D	16cc#LL 16ee
.	.	.	16b 16dd
.	.	8DJ	16a 16cc#
.	.	.	16gJJ 16b
.	.	8DL	8f#'L 8a'
.	.	8DJ	8e'J 8g'
=157	=157	=157	=157
2T	2I	8DDL 8D	8d'L 8f#'
.	.	8DJ	8e'J 8g'
.	.	8DL	4f# 4a
.	.	8DJ	.
=158	=158	=158	=158
.	.	.	qf#
2T	2I	8DDL 8D	(8f#L 8a
.	.	8DJ	8dJ) 8f#
.	.	8DL	8d'L 8f#'
.	.	8DJ	8d'J 8f#'
=159	=159	=159	=159
.	.	.	qf#
2T	2I	8DDL 8D	(8f#L 8a
.	.	8DJ	8dJ) 8f#
.	.	8DL	8d'L 8f#'
.	.	8DJ	8dd'J 8ff#'
=160	=160	=160	=160
4T	4V7	8DDL 8D	16cc#LL 16ee
.	.	.	16b 16dd
.	.	8DJ	16a 16cc#
.	.	.	16gJJ 16b
8T	8I	8DL	8f#'L 8a'
8D	8V7/vi	8FF#J 8F#	8c#'J 8e' 8a#'
=161	=161	=161	=161
2T	2vi	4BBB 4BB	4B 4d 4b
.	.	4r	4r
=162	=162	=162	=162
2T	2vi	8BBBL 8BB	(8f#L 8dd
.	.	8BBJ	8dJ) 8b
.	.	8BBL	8d'L 8b'
.	.	8BBJ	8d'J 8b'
=163	=163	=163	=163
2T	2V7	8AAAL 8AA	(8gL 8ee
.	.	8AAJ	8eJ) 8cc#
.	.	8AAL	8e'L 8cc#'
.	.	8AAJ	8e'J 8cc#'
=164	=164	=164	=164
2T	2V7	8AAAL 8AA	([8eL 8g 8ee
.	.	8AAJ	8eJ]) 8g 8cc#
.	.	8AAAL 8AA	([8eL 8g 8ee
.	.	8AAJ	8eJ]) 8g 8cc#
=165	=165	=165	=165
2T	2I	8DDL 8D	([8f#L 8a 8ff#
.	.	8DJ	8f#J]) 8a 8dd
.	.	8DDL 8D	([8f#L 8a 8ff#
.	.	8DJ	8f#J]) 8a 8dd
=166	=166	=166	=166
.	.	.	qff#
2T	2I	(8DL 8F# 8A	(8ff#L 8aa
.	.	8DJ) 8F#	8ddJ) 8ff#
.	.	8D'L 8F#'	8dd'L 8ff#'
.	.	8D'J 8F#'	8dd'J 8ff#'
=167	=167	=167	=167
.	.	.	qff#
2T	2I	(8DL 8F# 8A	(8ff#L 8aa
.	.	8DJ) 8F#	8ddJ) 8ff#
.	.	8D'L 8F#'	8dd'L 8ff#'
.	.	8d'J 8f#'	8ddd'J 8fff#'
=168	=168	=168	=168
8T	8I	8d'L 8f#'	16ccc#LL 16eee
.	.	.	16bb 16ddd
8P	8iib	8G'J 8e' 8g'	16aa 16ccc#
.	.	.	16ggJJ 16bb
8D	8Cc	8A'L 8d' 8f#'	8ff#'L 8aa'
8D	8V7	8AA'J 8C#' 8E' 8A'	8ee'J 8gg' 8aa' 8ccc#'
=169	=169	=169	=169
4.T	4.I	4DD 4FF# 4AA 4D	4dd 4ff# 4aa 4ddd
.	.	8r	8r
=170	=170	=170	=170
2D	2V	16ELL	16eLL
.	.	16D	16d
.	.	16C#	16c#
.	.	16BBJJ	16BJJ
.	.	8AAL	8AL
.	.	8AAJ	8AJ
=171	=171	=171	=171
2D	2V	4AA	4A
.	.	8r	8r
*	*	*clefG2	*
.	.	8ff#	8fff#
=172	=172	=172	=172
2D	2V7	16eeLL	16eeeLL
.	.	16dd	16ddd
.	.	16cc#	16ccc#
.	.	16bJJ	16bbJJ
.	.	8aL	8aaL
.	.	8aJ 8ee 8gg	8ccc#J
=173	=173	=173	=173
2D	2I	4dd 4ff#	4ddd
*	*	*clefF4	*
.	.	8r	8r
.	.	8F#	8f#
=174	=174	=174	=174
2D	2V	16ELL	16eLL
.	.	16D	16d
.	.	16C#	16c#
.	.	16BBJJ	16BJJ
.	.	8AAL	8AL
.	.	8AAJ	8AJ
=175	=175	=175	=175
4.D	4.V	4AA	4A
.	.	8r	8r
8D	8I	8D 8F#	8ff#
=176	=176	=176	=176
2D	2V7	8AAL 8E 8G	16eeLL
.	.	.	16dd
.	.	8AAJ 8E 8G	16cc#
.	.	.	16bJJ
.	.	8AAL 8E 8G	8aL
.	.	8AAJ 8E 8G	8eJ 8g 8a 8cc#
=177	=177	=177	=177
2T	2I	4D 4F#	4d 4f# 4a 4dd
.	.	4DD 4FF# 4AA 4D	4d 4f# 4a 4dd
=178	=178	=178	=178
2T	2I	4DD 4FF# 4AA 4D	4d 4f# 4a 4dd
.	.	4r	4r
==	==	==	==
*-	*-	*-	*-
